dist/images/big-tactic.svg

<svg width="440" height="231" viewBox="0 0 440 231" fill="none" xmlns="http://www.w3.org/2000/svg">
<g opacity="0.1">
<path d="M91.7108 -19.9604L127.956 47.9022" stroke="white" stroke-width="18" stroke-linecap="round" stroke-linejoin="round"/>
<path d="M76.5787 32.299L144.441 -3.94669" stroke="white" stroke-width="18" stroke-linecap="round" stroke-linejoin="round"/>
<path d="M177.202 -149.509C178.078 -155.241 183.435 -159.179 189.167 -158.303C194.9 -157.427 198.837 -152.07 197.961 -146.338L177.202 -149.509ZM291.27 154.673C290.579 160.431 285.352 164.539 279.594 163.848L185.767 152.593C180.009 151.902 175.902 146.675 176.592 140.917C177.283 135.159 182.51 131.051 188.268 131.742L271.67 141.747L281.675 58.3448C282.366 52.5871 287.593 48.4795 293.351 49.1702C299.109 49.8609 303.216 55.0883 302.526 60.846L291.27 154.673ZM197.961 -146.338C188.955 -87.386 185.029 -49.293 196.111 -8.66453C207.253 32.1825 233.897 76.6811 289.101 146.935L272.589 159.91C217.16 89.3705 188.18 42.0581 175.852 -3.13837C163.464 -48.5534 168.223 -90.7365 177.202 -149.509L197.961 -146.338Z" fill="white"/>
<path d="M138.697 -173.665C142.824 -177.739 149.472 -177.696 153.546 -173.569C157.62 -169.443 157.577 -162.795 153.45 -158.721L138.697 -173.665ZM34.3847 140.346C30.3912 144.551 23.7451 144.722 19.5404 140.728L-48.9797 75.6497C-53.1844 71.6562 -53.3556 65.0101 -49.3621 60.8054C-45.3685 56.6007 -38.7225 56.4295 -34.5178 60.423L26.389 118.271L84.2368 57.364C88.2303 53.1593 94.8764 52.9881 99.0811 56.9817C103.286 60.9752 103.457 67.6212 99.4635 71.826L34.3847 140.346ZM153.45 -158.721C110.73 -116.549 81.2687 -87.7962 62.4082 -47.811C43.636 -8.01293 34.9782 43.9548 37.2679 132.845L16.2749 133.386C13.9537 43.2745 22.5713 -12.58 43.415 -56.7698C64.1704 -100.772 96.6652 -132.173 138.697 -173.665L153.45 -158.721Z" fill="white"/>
<circle cx="31.1676" cy="31.1676" r="29.847" transform="matrix(0.956848 0.290588 0.290588 -0.956848 273.477 212.777)" fill="white" stroke="white" stroke-width="2.64124"/>
</g>
</svg>

<svg xmlns="http://www.w3.org/2000/svg" width="440" height="231" fill="none"><g opacity=".1"><path stroke="#fff" stroke-linecap="round" stroke-linejoin="round" stroke-width="18" d="m91.71-19.96 36.246 67.862M76.579 32.299 144.44-3.947"/><path fill="#fff" d="M177.202-149.509c.876-5.732 6.233-9.67 11.965-8.794s9.67 6.233 8.794 11.965zM291.27 154.673c-.691 5.758-5.918 9.866-11.676 9.175l-93.827-11.255c-5.758-.691-9.865-5.918-9.175-11.676.691-5.758 5.918-9.866 11.676-9.175l83.402 10.005 10.005-83.402c.691-5.758 5.918-9.865 11.676-9.175s9.865 5.918 9.175 11.676zm-93.309-301.011c-9.006 58.952-12.932 97.045-1.85 137.673 11.142 40.848 37.786 85.346 92.99 155.6l-16.512 12.975C217.16 89.37 188.18 42.058 175.852-3.138c-12.388-45.415-7.629-87.598 1.35-146.371zM138.697-173.665c4.127-4.074 10.775-4.031 14.849.096s4.031 10.774-.096 14.848zM34.385 140.346c-3.994 4.205-10.64 4.376-14.845.382L-48.98 75.65c-4.204-3.994-4.376-10.64-.382-14.845 3.994-4.204 10.64-4.376 14.844-.382l60.907 57.848 57.848-60.907c3.993-4.205 10.64-4.376 14.844-.382 4.205 3.993 4.376 10.64.382 14.844zM153.45-158.721c-42.72 42.172-72.181 70.925-91.042 110.91-18.772 39.798-27.43 91.766-25.14 180.656l-20.993.541C13.954 43.275 22.57-12.58 43.415-56.77c20.755-44.002 53.25-75.403 95.282-116.895z"/><circle cx="31.168" cy="31.168" r="29.847" fill="#fff" stroke="#fff" stroke-width="2.641" transform="scale(1 -1)rotate(-16.893 -579.692 -1027.2)"/></g></svg>
